arkscan/icons/bitmex.svg

<svg width="200" height="200" fill="none" xmlns="http://www.w3.org/2000/svg"><path d="M39.92 19.96 0 180.04h40.008l24.96-100.088h40.048l14.968-59.992H39.92Z" fill="#FF0201"/><path d="M200 19.96h-40.008l-14.968 59.992-9.992 40.056H95.024l-14.96 60.032h80.016l24.952-100.088L200 19.96Z" fill="#125BFF"/></svg>

<svg width="200" height="200" viewBox="0 0 200 200" fill="none" xmlns="http://www.w3.org/2000/svg">
<path d="M39.92 19.96L0 180.04H40.008L64.968 79.952H105.016L119.984 19.96H79.928H39.92Z" fill="#FF0201"/>
<path d="M200 19.96H159.992L145.024 79.952L135.032 120.008H95.024L80.064 180.04H120.072H160.08L185.032 79.952L200 19.96Z" fill="#125BFF"/>
</svg>
